X:17
T:Reel 17
M:4/4
K:Amaj
L:1/8
CB,|A,F, (3F,F,F, DB,CB,|A,F, (3F,F,F, A,2A,2|CDCB, A,B,CD|ECB,C A,2:|CE|FF2A FGAF|ECCB, B,2C2|EDCB, A,G,F,E,|F,B,B,A, B,2AF|EDCB, A,2F,G,|A,F,F,2 F,3B,|A,F,DC CDAF|ECB,C A,2|
